static/images/logo.svg

<svg width="77" height="23" viewBox="0 0 77 23" fill="none" xmlns="http://www.w3.org/2000/svg">
<path d="M0.0159912 19L5.11999 7.72001H6.79999L11.904 19H9.82399L8.70399 16.392H3.19999L2.09599 19H0.0159912ZM5.93599 9.94401L3.90399 14.76H7.99999L5.96799 9.94401H5.93599Z" fill="#282828"/>
<path d="M12.7862 19V11.176H14.7382V12.392C15.0049 11.944 15.3622 11.6027 15.8102 11.368C16.2689 11.1333 16.7809 11.016 17.3462 11.016C19.1916 11.016 20.1142 12.088 20.1142 14.232V19H18.1142V14.328C18.1142 13.72 17.9969 13.2773 17.7622 13C17.5382 12.7227 17.1862 12.584 16.7062 12.584C16.1196 12.584 15.6502 12.7707 15.2982 13.144C14.9569 13.5067 14.7862 13.992 14.7862 14.6V19H12.7862Z" fill="#282828"/>
<path d="M25.6336 22.04C24.9083 22.04 24.2256 21.9547 23.5856 21.784C22.9563 21.624 22.4016 21.3733 21.9216 21.032L22.4976 19.64C22.9456 19.9387 23.4256 20.1573 23.9376 20.296C24.4496 20.4453 24.9616 20.52 25.4736 20.52C26.9029 20.52 27.6176 19.832 27.6176 18.456V17.384C27.3936 17.8213 27.0469 18.168 26.5776 18.424C26.1189 18.68 25.6069 18.808 25.0416 18.808C24.3376 18.808 23.7243 18.648 23.2016 18.328C22.6789 17.9973 22.2736 17.5387 21.9856 16.952C21.6976 16.3653 21.5536 15.6827 21.5536 14.904C21.5536 14.1253 21.6976 13.448 21.9856 12.872C22.2736 12.2853 22.6789 11.832 23.2016 11.512C23.7243 11.1813 24.3376 11.016 25.0416 11.016C25.6283 11.016 26.1509 11.1493 26.6096 11.416C27.0683 11.672 27.4043 12.0187 27.6176 12.456V11.176H29.5696V18.216C29.5696 19.4853 29.2336 20.44 28.5616 21.08C27.8896 21.72 26.9136 22.04 25.6336 22.04ZM25.5856 17.288C26.2043 17.288 26.6949 17.0747 27.0576 16.648C27.4203 16.2213 27.6016 15.64 27.6016 14.904C27.6016 14.168 27.4203 13.592 27.0576 13.176C26.6949 12.7493 26.2043 12.536 25.5856 12.536C24.9669 12.536 24.4763 12.7493 24.1136 13.176C23.7509 13.592 23.5696 14.168 23.5696 14.904C23.5696 15.64 23.7509 16.2213 24.1136 16.648C24.4763 17.0747 24.9669 17.288 25.5856 17.288Z" fill="#282828"/>
<path d="M35.3379 19.16C34.4525 19.16 33.6899 18.9947 33.0499 18.664C32.4099 18.3333 31.9139 17.864 31.5619 17.256C31.2205 16.648 31.0499 15.928 31.0499 15.096C31.0499 14.2853 31.2152 13.576 31.5459 12.968C31.8872 12.36 32.3512 11.8853 32.9379 11.544C33.5352 11.192 34.2125 11.016 34.9699 11.016C36.0792 11.016 36.9539 11.368 37.5939 12.072C38.2445 12.776 38.5699 13.736 38.5699 14.952V15.544H32.9699C33.1192 16.9413 33.9192 17.64 35.3699 17.64C35.8072 17.64 36.2445 17.576 36.6819 17.448C37.1192 17.3093 37.5192 17.096 37.8819 16.808L38.4419 18.152C38.0685 18.4613 37.5992 18.7067 37.0339 18.888C36.4685 19.0693 35.9032 19.16 35.3379 19.16ZM35.0499 12.376C34.4632 12.376 33.9885 12.5573 33.6259 12.92C33.2632 13.2827 33.0445 13.7733 32.9699 14.392H36.9059C36.8632 13.7413 36.6819 13.2453 36.3619 12.904C36.0525 12.552 35.6152 12.376 35.0499 12.376Z" fill="#282828"/>
<path d="M42.7137 19.16C41.7857 19.16 41.0977 18.9093 40.6497 18.408C40.2124 17.896 39.9937 17.1493 39.9937 16.168V7.72001H41.9937V16.072C41.9937 17.032 42.3991 17.512 43.2097 17.512C43.3271 17.512 43.4444 17.5067 43.5617 17.496C43.6791 17.4853 43.7911 17.464 43.8977 17.432L43.8657 19.016C43.4817 19.112 43.0977 19.16 42.7137 19.16Z" fill="#282828"/>
<path d="M44.9234 19V16.776H47.1634V19H44.9234Z" fill="#282828"/>
<path d="M48.9081 19V7.72001H50.9081V14.504H50.9401L54.0921 11.176H56.5081L52.9561 14.92L56.7321 19H54.2841L50.9401 15.512H50.9081V19H48.9081Z" fill="#282828"/>
<path d="M57.1982 9.49601V7.54401H59.4382V9.49601H57.1982ZM57.3262 19V11.176H59.3262V19H57.3262Z" fill="#282828"/>
<path d="M63.4044 19L60.3164 11.176H62.3644L64.3644 16.68L66.3804 11.176H67.7884L69.8044 16.712L71.8044 11.176H73.7404L70.6684 19H68.9244L67.0204 13.96L65.1484 19H63.4044Z" fill="#282828"/>
<path d="M74.597 9.49601V7.54401H76.837V9.49601H74.597ZM74.725 19V11.176H76.725V19H74.725Z" fill="#282828"/>
<path d="M1 3.5L3.5 1L6 3.5L8.5 1L11 3.5L13.5 1L16 3.5" stroke="#9E00FF" stroke-linecap="round" stroke-linejoin="round"/>
</svg>

<svg width="77" height="23" fill="none" xmlns="http://www.w3.org/2000/svg"><path d="M.016 19 5.12 7.72H6.8L11.904 19h-2.08l-1.12-2.608H3.2L2.096 19H.016Zm5.92-9.056L3.904 14.76H8L5.968 9.944h-.032ZM12.786 19v-7.824h1.952v1.216c.267-.448.624-.79 1.072-1.024.459-.235.97-.352 1.536-.352 1.846 0 2.768 1.072 2.768 3.216V19h-2v-4.672c0-.608-.117-1.05-.352-1.328-.224-.277-.576-.416-1.056-.416-.586 0-1.056.187-1.408.56-.341.363-.512.848-.512 1.456V19h-2ZM25.634 22.04a7.92 7.92 0 0 1-2.048-.256 4.942 4.942 0 0 1-1.664-.752l.576-1.392c.448.299.928.517 1.44.656.512.15 1.024.224 1.536.224 1.429 0 2.144-.688 2.144-2.064v-1.072c-.224.437-.571.784-1.04 1.04-.46.256-.971.384-1.536.384-.704 0-1.318-.16-1.84-.48a3.318 3.318 0 0 1-1.216-1.376c-.288-.587-.432-1.27-.432-2.048 0-.779.144-1.456.432-2.032a3.21 3.21 0 0 1 1.216-1.36c.522-.33 1.136-.496 1.84-.496.586 0 1.109.133 1.568.4.458.256.794.603 1.008 1.04v-1.28h1.952v7.04c0 1.27-.336 2.224-1.008 2.864-.672.64-1.648.96-2.928.96Zm-.048-4.752c.618 0 1.109-.213 1.472-.64.362-.427.544-1.008.544-1.744s-.182-1.312-.544-1.728c-.363-.427-.854-.64-1.472-.64-.62 0-1.11.213-1.472.64-.363.416-.544.992-.544 1.728s.18 1.317.544 1.744c.362.427.853.64 1.472.64ZM35.338 19.16c-.886 0-1.648-.165-2.288-.496-.64-.33-1.136-.8-1.488-1.408-.341-.608-.512-1.328-.512-2.16 0-.81.165-1.52.496-2.128a3.72 3.72 0 0 1 1.392-1.424c.597-.352 1.274-.528 2.032-.528 1.11 0 1.984.352 2.624 1.056.65.704.976 1.664.976 2.88v.592h-5.6c.15 1.397.95 2.096 2.4 2.096.437 0 .875-.064 1.312-.192a3.727 3.727 0 0 0 1.2-.64l.56 1.344c-.373.31-.843.555-1.408.736a5.527 5.527 0 0 1-1.696.272Zm-.288-6.784c-.587 0-1.061.181-1.424.544-.363.363-.581.853-.656 1.472h3.936c-.043-.65-.224-1.147-.544-1.488-.31-.352-.747-.528-1.312-.528ZM42.714 19.16c-.928 0-1.616-.25-2.064-.752-.438-.512-.656-1.259-.656-2.24V7.72h2v8.352c0 .96.405 1.44 1.216 1.44.117 0 .234-.005.352-.016.117-.01.23-.032.336-.064l-.032 1.584a4.734 4.734 0 0 1-1.152.144ZM44.923 19v-2.224h2.24V19h-2.24ZM48.908 19V7.72h2v6.784h.032l3.152-3.328h2.416l-3.552 3.744L56.732 19h-2.448l-3.344-3.488h-.032V19h-2ZM57.198 9.496V7.544h2.24v1.952h-2.24ZM57.326 19v-7.824h2V19h-2ZM63.404 19l-3.088-7.824h2.048l2 5.504 2.016-5.504h1.408l2.016 5.536 2-5.536h1.936L70.668 19h-1.744l-1.904-5.04L65.148 19h-1.744ZM74.597 9.496V7.544h2.24v1.952h-2.24ZM74.725 19v-7.824h2V19h-2Z" fill="#282828"/><path d="M1 3.5 3.5 1 6 3.5 8.5 1 11 3.5 13.5 1 16 3.5" stroke="#9E00FF" stroke-linecap="round" stroke-linejoin="round"/></svg>
